!!!OTL: Ich und Du fuer's Vaterland.
!!!OTL-incipit:DIE FEIGHEIT ISTS DIE UNS VERDIRBT
!!!ARE: Europa, Mitteleuropa, Deutschland
!!!SCT: F0452
!!!YEM: Copyright 1995, estate of Helmut Schaffrath.
**kern	**text
*ICvox	*
*M4/4	*
*met(c)	*
*k[b-]	*
*F:	*
!LO:TX:a:t=Gemessen.	!
{4c	1._Die
=1	=1
4f	Feigheit
4a	.
4cc	iſt's,
8aL	die
8fJ	.
=2	=2
4dd	uns
4b-	ver-
4g	-dirbt,
8r}	.
{8f	nicht
=3	=3
4e	denkt,
4g	daß
4.cc	man
8g	doch
=4	=4
4b-/	ein-
4a	-mal
4f	ſtirbt,
8r}	.
{8a	im
=5	=5
4g	Bett,
4bn	im
4cc	Feld,
8bL	auf
8aJ	.
=6	=6
4g	Blutgerüſt,
4bn	.
4cc}	.
{4ee	wenn's
=7	=7
4dd	nur
4ff	für
4a	Gottes
4bn/	.
=8	=8
4.dd	Eh-
8cc	-re
4cc}	iſt;
{4cc	im
=9	=9
4b-X	Bett,
8gL	im
8aJ	.
4b-	Feld,
4dd	auf
=10	=10
4.cc	Blut-
8a	-ge-
4cc}	-rüſt,
{4ff	wenn's
=11	=11
4dd	nur
8b-L	für
8gJ	.
4cc	Got-
8fL	-tes
8gJ	.
=12	=12
4a	Eh-
4g	-re
4f}	iſt.
==:||	==:||
!!!AGN: Vaterlands -, Heimat - Lied
!!!ONB: ESAC (Essen Associative Code) Database: FINK
!!!AMT: simple quadruple
!!!AIN: vox
!!!EED: Helmut Schaffrath
!!!EEV: 1.0
!!Text: F. G. Wetzel
!!!GTL: Vaterlands- und Heimathslieder.
!!!source: Musikalischer Hausschatz der Deutschen. Eine Sammlung von über 1000 Liedern und Gesängen mit Singstimmen und Klavierbegleitung. Leipzig, Litterarisches Verlags-Haus.
!!!page: 279
!!!URL-scan: https://www.digitale-sammlungen.de/en/view/bsb11144622?page=271
!!!ENC: Anna Maria Matuszewska
!!!EEV: 2024/03/14
*-	*-
